X: 38412
T: Star Of Slievenamon
R: slide
M: 12/8
K: Dmixolydian
|:B3 BAB d2B B2G|cBc e2d B2A A2d|
B3 BAB d2B B2A|GAB G2E D3 D3:|
|:e2a a2g ede g3|BAB d2B A2G E2D|
e2a a2g ede g3|BAB d2B A3 A3:|

